icons/icons/macOS-icons/actions/24/document-new.svg

<svg version="1.1" viewBox="0 0 24 24" xmlns="http://www.w3.org/2000/svg">
 <defs>
  <style id="current-color-scheme" type="text/css">.ColorScheme-Text {
        color:#363636;
      }</style>
 </defs>
 <path class="ColorScheme-Text" d="m16 15v2h-2v1h2v2h1v-2h2v-1h-2v-2z" fill="currentColor"/>
 <path class="ColorScheme-Text" d="m8 4c-1.662 0-3 1.338-3 3v10c0 1.662 1.338 3 3 3h6v-1h-6c-1.108 0-2-0.892-2-2v-10c0-1.108 0.892-2 2-2h6v2c0 1.108 0.892 2 2 2h2v6h1v-7l-4-4h-7z" fill="currentColor"/>
</svg>

<svg xmlns="http://www.w3.org/2000/svg" viewBox="0 0 24 24">
  <defs id="defs3051">
    <style type="text/css" id="current-color-scheme">
      .ColorScheme-Text {
        color:#dedede;
      }
      </style>
  </defs>
 <path 
    style="fill:currentColor;fill-opacity:1;stroke:none" 
     d="M 5 4 L 5 20 L 6 20 L 14 20 L 14 19 L 6 19 L 6 5 L 14 5 L 14 8 L 14 9 L 18 9 L 18 15 L 19 15 L 19 9.40625 L 19 8 L 19 7.9921875 L 15.007812 4 L 15 4.0097656 L 15 4 L 14 4 L 6 4 L 5 4 z M 16 15 L 16 17 L 14 17 L 14 18 L 16 18 L 16 20 L 17 20 L 17 18 L 19 18 L 19 17 L 17 17 L 17 15 L 16 15 z "
     class="ColorScheme-Text" />
</svg>
